svg/OSM-icons/leisure #21610b °ffffff !label=enleisure,deFreizeit/21060;leisure=pitch;!name=;#sport=soccer;[contact];!label=ensoccer,deFußball.svg

<svg xmlns="http://www.w3.org/2000/svg" viewBox="0 0 580 580" enable-background="new 0 0 580 580"><path fill="#111" stroke="#eee" stroke-width="3.408" d="m66.28 1.768c-41.34 0-64.57 21.371-64.57 65.04v450.12c0 40.844 20.894 62.23 62.19 62.23h452.02c41.31 0 62.23-20.316 62.23-62.23v-450.12c0-42.601-20.923-65.04-63.52-65.04-.003 0-448.49-.143-448.35 0z"/><path fill="#fff" d="m290 65.33c-130.24 0-235.95 100.66-235.95 224.69 0 124.02 105.71 224.66 235.95 224.66 130.24 0 235.95-100.64 235.95-224.66 0-124.02-105.71-224.69-235.95-224.69m-17.705 18.664l49.22 40.7-13.02 51.938-54.678 25.407-69.18-18.336-10.277-42.29 26.53-40.04 71.4-17.377m122.57 21.707l63.37 51.965-17.843 64.983-57.912 8.66-54.19-54.19 8.661-49.22 57.913-22.2m-228.06 9.648c-2.252 8.846-4.515 17.712-6.605 26.558l-31.848 8.195c2.573-4.664 5.814-8.998 9.675-13.02 3.378-4.343 6.909-8.545 11.895-11.923 4.985-3.859 9.967-6.917 16.883-9.811m10.14 85.26l63.832 17.843 16.253 69.15-66.57 51.47-57.912-1.617-14.636-76.878 59.04-59.968m271.47 39.22l32.478 54.705-44.866 74.14-56.3-5.317-20.583-47.11 34.588-66.6 54.678-9.812m-381.98 18.664l33.63 10.771 17.842 74.63-21.708 39.08c-5.146 2.086-9.982-3.382-15.13-14.636-5.629-12.224-13.186-36.836-15.759-55.17-2.412-18.499-2.253-36.502 1.124-54.677m444.88 30.07c.161 18.656-1.302 34.421-4.357 50.35-3.698 15.757-9.171 30.08-14.636 41.659-5.463 10.932-10.462 18.671-16.253 23.817l-26.04-30.26 45.497-76.879 15.786-8.687m-241.43 12.387l72.55 18.993 23.16 54.51-40.04 52.596-90.39-18.967-29.765-59.53 64.49-47.608m-42.12 120.62l95.87 16.91 27.49 42.12-6.907 18.5c-13.349 1.939-26.879 3.379-41.19 3.7-14.796.322-30.552-.013-44.866-1.617-15.278-2.25-29.439-6.279-41.823-10.305-12.384-4.338-21.867-9.151-30.23-15.1l-1.124-21.707 42.782-32.504"/></svg>

<?xml version="1.0" encoding="utf-8"?>
<!-- Generator: Adobe Illustrator 15.0.0, SVG Export Plug-In . SVG Version: 6.00 Build 0)  -->
<!DOCTYPE svg PUBLIC "-//W3C//DTD SVG 1.1//EN" "http://www.w3.org/Graphics/SVG/1.1/DTD/svg11.dtd">
<svg version="1.1" xmlns="http://www.w3.org/2000/svg" xmlns:xlink="http://www.w3.org/1999/xlink" x="0px" y="0px" width="580px"
	 height="580px" viewBox="0 0 580 580" enable-background="new 0 0 580 580" xml:space="preserve">
<g id="Layer_2">
	<g id="g1327">
		<path id="path1329" fill="#111111" stroke="#EEEEEE" stroke-width="3.408" d="M66.275,1.768
			c-41.335,0-64.571,21.371-64.571,65.036v450.123c0,40.844,20.894,62.229,62.192,62.229H515.92
			c41.307,0,62.229-20.316,62.229-62.229V66.804c0-42.601-20.923-65.036-63.522-65.036C514.624,1.768,66.133,1.625,66.275,1.768z"/>
	</g>
</g>
<g id="svg2" inkscape:output_extension="org.inkscape.output.svg.inkscape" inkscape:version="0.46" sodipodi:docname="waste_bin.svg" sodipodi:version="0.32" xmlns:inkscape="http://www.inkscape.org/namespaces/inkscape" xmlns:rdf="http://www.w3.org/1999/02/22-rdf-syntax-ns#" xmlns:svg="http://www.w3.org/2000/svg" xmlns:sodipodi="http://sodipodi.sourceforge.net/DTD/sodipodi-0.dtd" xmlns:cc="http://creativecommons.org/ns#" xmlns:dc="http://purl.org/dc/elements/1.1/">
	<path id="path10456" fill="#FFFFFF" d="M290,65.327c-130.238,0-235.951,100.663-235.951,224.687
		c0,124.021,105.709,224.659,235.951,224.659c130.243,0,235.951-100.639,235.951-224.659C525.951,165.99,420.239,65.327,290,65.327z
		 M272.295,83.991l49.224,40.7L308.5,176.629l-54.678,25.407L184.646,183.7l-10.277-42.29l26.53-40.042L272.295,83.991z
		 M394.861,105.698l63.366,51.965l-17.843,64.983l-57.912,8.66l-54.185-54.185l8.661-49.224L394.861,105.698z M166.804,115.346
		c-2.252,8.846-4.515,17.712-6.605,26.558l-31.848,8.195c2.573-4.664,5.814-8.998,9.675-13.019
		c3.378-4.343,6.909-8.545,11.895-11.923C154.906,121.298,159.888,118.24,166.804,115.346z M176.944,200.61l63.832,17.843
		l16.253,69.149l-66.573,51.471l-57.912-1.617l-14.636-76.878L176.944,200.61z M448.416,239.831l32.478,54.705l-44.866,74.138
		l-56.295-5.317l-20.583-47.113l34.588-66.601L448.416,239.831z M66.437,258.495l33.63,10.771l17.842,74.63L96.201,382.98
		c-5.146,2.086-9.982-3.382-15.129-14.636c-5.629-12.224-13.186-36.836-15.759-55.172C62.901,294.673,63.06,276.67,66.437,258.495z
		 M511.315,288.562c0.161,18.656-1.302,34.421-4.357,50.348c-3.698,15.757-9.171,30.079-14.636,41.659
		c-5.463,10.932-10.462,18.671-16.253,23.817l-26.037-30.258l45.497-76.879L511.315,288.562z M269.883,300.949l72.548,18.993
		l23.159,54.514l-40.042,52.596l-90.39-18.967l-29.765-59.528L269.883,300.949z M227.758,421.57l95.871,16.91l27.49,42.125
		l-6.907,18.5c-13.349,1.939-26.879,3.379-41.193,3.7c-14.796,0.322-30.552-0.013-44.866-1.617
		c-15.278-2.25-29.439-6.279-41.823-10.305c-12.384-4.338-21.867-9.151-30.23-15.102l-1.124-21.707L227.758,421.57z"/>
</g>
</svg>
